!!!!SEGMENT: pl-wumfc--n50550_moniuszko-stanislaw--wybor-tu-ze-wsi-trzech-mlodziencow.krn
!!!cenid: 18xx:4085
!!!COM: Moniuszko, Stanisław
!!!COM-rismID: pe30008351
!!!CDT: 1819/05/05-1872/06/04
!!!CNT: Polish
!!!OTL: Wybór/Tu ze wsi trzech młodzieńców
!!!PDT:
!!!AGN:
!!!SMS-siglum: PL-Wumfc
!!!SMS-shelfmark: N50550
!!!SMS-shelfwork: W
!!!SMS-variant:
!!!SMS-altvar:
!!!NIFC-rismSourceID: 1001153017
!!!NIFC-rismChildID: 1001153017
!!!NIFC-islandoraID: pl-wumfc:6834
!!!URL-pdf-islandora: https://repozytorium.nifc.pl/islandora/object/pl-wumfc%3A6834/datastream/PDF/view
!!!URL-scan: https://polish.musicsources.pl/pl/lokalizacje/galeria/druki-muzyczne/12568 @EN{Scan on Polish Music Sources Website} @PL{Skany w portalu Dziedzictwo Muzyki Polskiej w otwartym dostępie}
!!!ONB-nifc:
!!!AIN: 1 piano 1 soprn
!!!key: G
**kern	**fing	**kern	**dynam	**kern	**text	**text	**text
*part2	*part2	*part2	*part2	*part1	*part1	*part1	*part1
*staff3	*staff3	*staff2	*	*staff1	*staff1	*staff1	*staff1
*I"Fortepian.	*	*I"Fortepian.	*	*I"Spiew.	*v:1	*v:2	*v:3
*>[A,B,B1,B,B1,B,B2]	*	*>[A,B,B1,B,B1,B,B2]	*	*>[A,B,B1,B,B1,B,B2]	*	*	*
*>A	*	*>A	*	*>A	*	*	*
*Ipiano	*	*Ipiano	*	*Isoprn	*	*	*
*ICklav	*	*ICklav	*	*ICvox	*	*	*
*IGacmp	*	*IGacmp	*	*IGsolo	*	*	*
*clefF4	*	*clefG2	*	*clefG2	*	*	*
*k[f#]	*	*k[f#]	*	*k[f#]	*	*	*
*G:	*	*G:	*	*G:	*	*	*
*M2/4	*	*M2/4	*	*M2/4	*	*	*
=1	=1	=1	=1	=1	=1	=1	=1
!!LO:TX:B:a:t=Allegretto.
(8GG^\L	.	4r	p	4r	.	.	.
8D\J	.	.	.	.	.	.	.
[4G\)	.	8r	.	8r	.	.	.
.	.	8bb 8gg'\	.	8b\	Tu	.	.
=2	=2	=2	=2	=2	=2	=2	=2
*^	*	*	*	*	*	*	*
8r	2G\]	.	(8aaL 8ff#\	.	8a/	ze	.	.
!LO:TX:a:t=P:problem:mixed beam	!	!	!	!	!	!	!	!
8d/L	.	2	8ff# 8dd\)	.	8f#/	wsi	.	.
8e/	.	1	8gg 8ee'\	.	8g/	trzech	.	.
8f#/	.	2	8eeJ 8cc'\	.	8e/	mło-	.	.
*v	*v	*	*	*	*	*	*	*
=3!|:	=3!|:	=3!|:	=3!|:	=3!|:	=3!|:	=3!|:	=3!|:
*>B	*	*>B	*	*>B	*	*	*
!	!	!	!	!	!LO:MO:n=2:mod=wzdy-	!	!
8g>^\	1	(8dd/ 8b/	.	8.d/	-dzień-	wdzy-	-tu-
8dd>\	.	8rccc	.	.	.	.	.
.	.	.	.	32g/LLL	-ców	-cha,	-lu
.	.	.	.	32b/JJJ	.	.	.
8bb>\	.	[8ddd/L)	.	[4dd\	do	ser-	ni
(<8ccc>J 8aa>'\	.	8ddd/J_	.	.	.	.	.
=4	=4	=4	=4	=4	=4	=4	=4
8gg>'\L	.	8ddd]L 8bb/	.	8dd\]	.	.	.
8ffn>'\	.	8bb 8gg#X/	.	8dd\	mnie	-ce	te-
8ee>'\	.	8ccc 8aa/	.	8cc\	się	o-	-mu,
8dd>'\	1	8gg#J 8ee/	.	8b\	u-	-fia-	ni
=5	=5	=5	=5	=5	=5	=5	=5
8cc>'\	.	[8aaL 8ee/	.	4.a/	-da-	-ru-	te-
8b>'\	.	8aa_ 8dd/	.	.	.	.	.
8a>'\	.	8aa] 8cc/	.	.	.	.	.
8g>'\	1	8eeJ 8cc#X/	.	8a/	-je:	-je.	-mu,
=6	=6	=6	=6	=6	=6	=6	=6
8f#>'\	.	8a/L	.	8a/	ten	Trze-	niech
8e>'\	.	8cc 8g/	.	8cc\	pie-	-ci	się
8d'/	1	8f#'/	.	8f#/	-nią-	po-	ja
8c'/J	.	8aJ 8e'/	.	8a/	-dze	-de	do-
!!LO:LB:g=original
=7	=7	=7	=7	=7	=7	=7	=7
8B'/L	.	8d'/L	.	8.g/L	li-	drzwia-	-sta-
8A#X'/	.	8e 8c#X'/	.	.	.	.	.
.	.	.	.	32f#/LL	.	.	.
.	.	.	.	32e/JJJ	.	.	.
8An'/	.	8f# 8cn'/	.	8d/	-czy,	-mi	-nę
8G'/	.	8gJ 8B'/	.	8r	.	.	.
=8	=8	=8	=8	=8	=8	=8	=8
8F#'/	.	8aL 8d'/	<	8a/	tam-	rę-	u
*	*below	*	*	*	*	*	*
8E'/	1	8cc 8g 8c'/	.	8cc\	-ten	-ce	drzwi
.	.	.	.	8qcc/	.	.	.
8D'/	.	8b 8g 8d'/	.	8b\	za	za-	pła-
8C'/	.	8aJ 8f# 8d'/	.	8a/	mną	-ła-	-czą-
=9	=9	=9	=9	=9	=9	=9	=9
8BB'/	1	8ddL 8d'/	.	4.dd\	sta-	-mu-	-ce-
8AA'/	.	8dd 8cc 8d'/	.	.	.	.	.
8GG'/	.	8dd 8b 8d'/	.	.	.	.	.
8FFn'/	.	8ddJ 8a 8d'/	[[	8dd\	-je,	-je,	-mu,
=10	=10	=10	=10	=10	=10	=10	=10
*	*	*^	*	*	*	*	*
!	!	!LO:TX:i:b:t=ral-len-tan-do:ext2=cd:dur=3h	!	!	!LO:TX:i:a:t=ral-len-tan-do:ext2=cd:dur=3h	!	!	!
8EE'/	.	8dd/L	(4g#X\	sf <	8dd\	ten	trze-	niech
8DD'/	.	8ffn/	.	.	8ffn\	pie-	-ci	się
8CC'/	.	8ee/	8a\L)	.	8ee\	-nią-	po-	ja
8BBB'/	.	8dd/J	(8g#J 8fn\	.	8dd\	-dze	-de	do-
*	*	*v	*v	*	*	*	*	*
=11	=11	=11	=11	=11	=11	=11	=11
8AAA'/	.	8ccL 8a 8e/	[	8cc\	li-	drzwia-	-sta-
8BBB'/	.	8b 8g#X 8e 8d/	.	8b\	-czy,	-mi	-nę
8CC'/	.	8a 8e/	.	8a/	tam-	rę-	u
8CC#X'/J)	.	8a#XJ 8gn 8e/	.	8ee\	-ten	-ce	drzwi
=12	=12	=12	=12	=12	=12	=12	=12
(2DD (2DDD^^/	.	8bL 8d/	.	8dd\	za	za-	pła-
.	.	8a#X 8c#X/	.	16cc#X\LL	mną	-ła-	-czą-
.	.	.	.	16ee\JJ	.	.	.
.	.	8an 8cn/	.	4dd\	sta-	-mu-	-ce-
.	.	8f#J 8A/	.	.	.	.	.
!!LO:LB:g=original
=13	=13	=13	=13	=13	=13	=13	=13
!	!	!LO:TX:B:b:t=a tempo 1o.	!	!LO:TX:B:a:t=a tempo 1o.	!	!	!
8GG 8GGG/))	.	(8.gL 8.B^>/)	.	8g/	-je,	-je.	-mu.
8r	.	.	.	8r	.	.	.
.	.	32b/LL	.	.	.	.	.
.	.	32dd/JJJ	.	.	.	.	.
8r	.	8gg/)	.	4r	.	.	.
(8g>\	.	(8ddd 8bb/	>	.	.	.	.
=14	=14	=14	=14	=14	=14	=14	=14
!	!	!LO:TX:t=P:problem:błędne wyświetlanie łuku	!	!	!	!	!
.	.	(<8qfff#/	.	.	.	.	.
8cc>\L	.	8eeeL 8ccc/)	]	2r	.	.	.
8ff#> 8dd>\	.	8ddd 8aa/	.	.	.	.	.
8gg>J 8cc>\)	.	8eeeJ 8ccc/)	.	.	.	.	.
(<8gg> 8ee>\	.	(8bb/	>]	.	.	.	.
=15	=15	=15	=15	=15	=15	=15	=15
*>B1	*	*>B1	*	*>B1	*	*	*
!LO:TX:a:t=P:problem:mixed beam	!	!	!	!	!	!	!
.	.	8qddd/	.	.	.	.	.
8ee>L 8a>\	.	8cccL 8aa/	.	4r	.	.	.
8e>\	.	8bb 8gg/	.	.	.	.	.
8A/)	.	8cccJ 8aa/)	.	8r	.	.	.
8B\J	.	8bb 8gg'/	.	8b\	2. I	3. O	.
=16	=16	=16	=16	=16	=16	=16	=16
!LO:TX:a:t=P:problem:mixed beam	!	!	!	!	!	!	!
8c/L	.	(8aaL 8ff#/	.	8a/	sto-	nie	.
8d/	.	8ff# 8dd/)	.	8f#/	-jąc	daj	.
8e>\	.	8gg 8cc/	.	8g/	cięż-	mnie	.
8f#>\J	.	8eeJ 8cc/	.	8e/	-ko	ma-	.
=17:|!	=17:|!	=17:|!	=17:|!	=17:|!	=17:|!	=17:|!	=17:|!
*>B2	*	*>B2	*	*>B2	*	*	*
.	.	(8qddd/	.	.	.	.	.
8ee>L 8a>\	.	(>8cccL 8aa/)	.	2r	.	.	.
8dd> 8b>\	.	8bb 8gg/	.	.	.	.	.
8ee-X> 8cc>\	.	8aa 8gg/)	.	.	.	.	.
8een>J 8cc#X>\	.	8eeeJ 8aa#X 8gg'>/	.	.	.	.	.
=18	=18	=18	=18	=18	=18	=18	=18
*	*	*^	*	*	*	*	*
8dd>\	.	8ddd 8bb 8gg'>/	8ryy	.	2r	.	.	.
8r	.	8r	(>16c#X\LL	.	.	.	.	.
.	.	.	16e\JJ)	p	.	.	.	.
([4D 4DD/	.	(4a 4f#/	(>8d\L	>	.	.	.	.
.	.	.	8cn\J)	.	.	.	.	.
*	*	*v	*v	*	*	*	*	*
=19	=19	=19	=19	=19	=19	=19	=19
8D] 8GG/)	.	8b 8g 8B/)	]	2r	.	.	.
8r	.	8r	.	.	.	.	.
4r	.	4r	.	.	.	.	.
==	==	==	==	==	==	==	==
*-	*-	*-	*-	*-	*-	*-	*-
!!!system-decoration: (p1){(p2)}
!!!ENC: Berenika Jozajtis
!!!END: 2022-08-19
!!!ENC: Kamil Watkowski
!!!END: 2022-09-24
!!!RDF**kern: > = above
!!!RDF**kern: < = below
!!!YEC: Copyright 2022 Narodowy Instytut Fryderyka Chopina (https://polishscores.org)
!!!YEM: License CC-BY-4.0 (https://creativecommons.org/licenses/by/4.0)
